packages/bezier-icons/icons/channel-btn-filled.svg

<svg width="24" height="24" viewBox="0 0 24 24" fill="none" xmlns="http://www.w3.org/2000/svg">
<path fill-rule="evenodd" clip-rule="evenodd" d="M12 1C5.95869 1 1.05381 5.87201 1 11.9004V12.0996C1.05381 18.1285 5.95869 23 12 23C18.0752 23 23 18.0747 23 12C23 5.92531 18.0752 1 12 1ZM17.8042 16.212C17.665 15.7962 17.7008 15.3436 17.8977 14.952C18.4609 13.8349 18.7183 12.5386 18.5483 11.1669C18.1804 8.20572 15.7923 5.81213 12.83 5.45078C8.53506 4.92663 4.92708 8.53407 5.45067 12.8295C5.81202 15.7913 8.20506 18.1794 11.1657 18.5479C12.5374 18.7184 13.8343 18.461 14.9519 17.8983C15.3435 17.7009 15.7961 17.6651 16.2125 17.8043L17.5561 18.252C17.9862 18.3955 18.3949 17.9863 18.2524 17.5568L17.8042 16.212ZM8.97223 11.9447C8.97223 13.0763 9.23918 13.5389 9.8791 13.5389C10.5196 13.5389 10.7872 13.0763 10.7872 11.9447C10.7872 10.8126 10.5196 10.35 9.8791 10.35C9.23918 10.35 8.97223 10.8126 8.97223 11.9447ZM13.2138 11.9453C13.2138 13.0772 13.4808 13.54 14.1216 13.54C14.7618 13.54 15.0288 13.0772 15.0288 11.9453C15.0288 10.8127 14.7618 10.35 14.1216 10.35C13.4808 10.35 13.2138 10.8127 13.2138 11.9453Z" fill="#313234"/>
</svg>

<svg xmlns="http://www.w3.org/2000/svg" width="24" height="24" fill="none">
  <path fill="#313234" fill-rule="evenodd" d="M12 1C5.959 1 1.054 5.872 1 11.9v.2C1.054 18.128 5.959 23 12 23c6.075 0 11-4.925 11-11S18.075 1 12 1Zm5.804 15.212a1.642 1.642 0 0 1 .094-1.26 6.56 6.56 0 0 0 .65-3.785c-.368-2.961-2.756-5.355-5.718-5.716a6.604 6.604 0 0 0-7.38 7.378c.362 2.962 2.755 5.35 5.716 5.719a6.565 6.565 0 0 0 3.786-.65 1.641 1.641 0 0 1 1.26-.094l1.344.448a.55.55 0 0 0 .696-.695l-.448-1.345Zm-8.832-4.267c0 1.131.267 1.594.907 1.594s.908-.463.908-1.594c0-1.132-.267-1.595-.908-1.595-.64 0-.907.463-.907 1.595Zm4.242 0c0 1.132.267 1.595.908 1.595.64 0 .907-.463.907-1.595s-.267-1.595-.907-1.595c-.641 0-.908.463-.908 1.595Z" clip-rule="evenodd"/>
</svg>
